!!!!SEGMENT: pl-cz--iii-753--001-005_zebrowski-marcin-jozef--vesperae-in-d-laudate-dominum.krn
!!!cenid: 17xx:2376
!!!COM: Żebrowski, Marcin Józef
!!!COM-rismid: pe30020322
!!!CDT: 1702-1770/06/29
!!!CNT: Polish
!!!OPR: Vesperae in D
!!!OTL: Laudate Dominum
!!!OMV: 005
!!!PDT:
!!!AGN:
!!!SMS-siglum: PL-CZ
!!!SMS-shelfmark: III-753
!!!SMS-shelfwork: 001-005 M
!!!SMS-variant:
!!!SMS-altvar:
!!!NIFC-rismid: 300033505
!!!URL-scan: https://repozytorium.nifc.pl/islandora/object/pl-cz%3A25492/datastream/PDF/view
!!!ONB-nifc: UWAGA: części Nieszporów: 1. Dixit Dominus, 2. Confitebor, 3. Beatus vir, 4. Laudate pueri, 5. Laudate Dominum, 6. Credidi, 7. In convertendo, 8. Domine probasti me, 9. Laetatus sum, 10. Nisi Dominus, 11. Lauda Jerusalem, 12. Magnificat, 13. Quia respexit, 14. Deposuit potentes, 15. Gloria patri
!!!AIN: 1 alto 1 bass 2 clrno 1 fagot 1 organ 1 soprn 1 tenor 2 violn
!!!key: G
**kern	**fb	**kern	**kern	**kern	**text	**kern	**text	**kern	**text	**kern	**text	**text	**kern	**kern	**kern
*part10	*	*part9	*part8	*part7	*part7	*part6	*part6	*part5	*part5	*part4	*part4	*part4	*part3	*part2	*part1
*staff10	*	*staff9	*staff8	*staff7	*staff7	*staff6	*staff6	*staff5	*staff5	*staff4	*staff4	*staff4	*staff3	*staff2	*staff1
*group	*	*group3	*group3	*group2	*group2	*group2	*group2	*group2	*group2	*group2	*group2	*group2	*group1	*group1	*group
*I"Organo.	*	*I"Violino Secondo.	*I"Violino Primo.	*I"Baſso.	*	*I"Tenore.	*	*I"Alto.	*	*I"Canto.	*	*	*I"Clarino Secondo ex D.	*I"Clarino Primo ex D	*I"Baſsone.
*I'org	*	*I'vl 2	*I'vl 1	*I'B	*	*I'T	*	*I'A	*	*I'S	*	*	*I'clno 2 in D	*I'clno 1 in D	*I'fag
*Iorgan	*	*Ivioln	*Ivioln	*Ibass	*	*Itenor	*	*Ialto	*	*Isoprn	*	*	*Iclrno	*Iclrno	*Ifagot
*ICklav	*	*ICstr	*ICstr	*ICvox	*	*ICvox	*	*ICvox	*	*ICvox	*	*	*ICbras	*ICbras	*ICww
*clefF4	*	*clefG2	*clefG2	*clefF4	*	*clefC4	*	*clefC3	*	*clefC1	*	*	*clefG2	*clefG2	*clefF4
*	*	*	*	*	*	*	*	*	*	*	*	*	*ITrd-1c-2	*ITrd-1c-2	*
*k[f#]	*	*k[f#]	*k[f#]	*k[f#]	*	*k[f#]	*	*k[f#]	*	*k[f#]	*	*	*k[f#]	*k[f#]	*k[f#]
*G:	*	*G:	*G:	*G:	*	*G:	*	*G:	*	*G:	*	*	*G:	*G:	*G:
*M4/4	*	*M4/4	*M4/4	*M4/4	*	*M4/4	*	*M4/4	*	*M4/4	*	*	*M4/4	*M4/4	*M4/4
*met(c)	*	*met(c)	*met(c)	*met(c)	*	*met(c)	*	*met(c)	*	*met(c)	*	*	*met(c)	*met(c)	*met(c)
=1	=1	=1	=1	=1	=1	=1	=1	=1	=1	=1	=1	=1	=1	=1	=1
*	*above	*	*	*	*	*	*	*	*	*	*	*	*	*	*
!	!	!LO:TX:a:t=2.	!	!LO:TX:a:t=4.	!	!LO:TX:a:t=4.	!	!LO:TX:a:t=2	!	!	!	!	!	!	!LO:TX:a:i:t=Allo. Tutti.
!LO:TX:a:t=allo.:rj	!	!LO:TX:b:t=Allo.	!LO:TX:a:t=allo.	!LO:TX:a:t=allo.	!	!LO:TX:a:t=allo.	!	!LO:TX:a:i:t=allo.	!	!LO:TX:a:t=allo.	!	!	!	!	!
8r	.	0r	4r	00r	.	00r	.	0r	.	4r	.	.	1ryy	1ryy	8r
8G\L|	.	.	.	.	.	.	.	.	.	.	.	.	.	.	8G\L|
!LO:TX:b:t=tutti.	!	!	!	!	!	!	!	!	!	!	!	!	!	!	!
8F#\|	.	.	4g/|	.	.	.	.	.	.	4g/	Lau-	.	.	.	8F#\|
8G\J|	.	.	.	.	.	.	.	.	.	.	.	.	.	.	8G\J|
8D\L|	.	.	4g/|	.	.	.	.	.	.	4g/	-da-	.	.	.	8D\L|
8G\|	.	.	.	.	.	.	.	.	.	.	.	.	.	.	8G\|
8BB\|	.	.	4g/|	.	.	.	.	.	.	4g/	-te	.	.	.	8BB\|
8D\J|	.	.	.	.	.	.	.	.	.	.	.	.	.	.	8D\J|
=2	=2	=2	=2	=2	=2	=2	=2	=2	=2	=2	=2	=2	=2	=2	=2
4GG/	.	.	(16g/LL	.	.	.	.	.	.	2.g/	Do-	.	1ryy	1ryy	4GG/
.	.	.	16f#/	.	.	.	.	.	.	.	.	.	.	.	.
.	.	.	16g/)	.	.	.	.	.	.	.	.	.	.	.	.
.	.	.	16a/JJ|	.	.	.	.	.	.	.	.	.	.	.	.
4r	.	.	(16g/LL	.	.	.	.	.	.	.	.	.	.	.	4r
.	.	.	16f#/	.	.	.	.	.	.	.	.	.	.	.	.
.	.	.	16g/)	.	.	.	.	.	.	.	.	.	.	.	.
.	.	.	16a/JJ|	.	.	.	.	.	.	.	.	.	.	.	.
4GG/	.	.	(16g/LL	.	.	.	.	.	.	.	.	.	.	.	4GG/
.	.	.	16f#/	.	.	.	.	.	.	.	.	.	.	.	.
.	.	.	16g/)	.	.	.	.	.	.	.	.	.	.	.	.
.	.	.	16a/JJ|	.	.	.	.	.	.	.	.	.	.	.	.
4r	.	.	(16g/LL	.	.	.	.	.	.	4g/	-mi-	.	.	.	4r
.	.	.	16f#/	.	.	.	.	.	.	.	.	.	.	.	.
.	.	.	16g/)	.	.	.	.	.	.	.	.	.	.	.	.
.	.	.	16a/JJ|	.	.	.	.	.	.	.	.	.	.	.	.
=3	=3	=3	=3	=3	=3	=3	=3	=3	=3	=3	=3	=3	=3	=3	=3
8r	.	4r	4g/	.	.	.	.	4r	.	4g/	-nu(m)	.	1ryy	1ryy	8r
8G\L|	.	.	.	.	.	.	.	.	.	.	.	.	.	.	8G\L|
8F#\|	.	4g/|	4b/|	.	.	.	.	4g\	Lau-	4b\	lau-	.	.	.	8F#\|
8G\J|	.	.	.	.	.	.	.	.	.	.	.	.	.	.	8G\J|
8D\L|	.	4g/|	4b/|	.	.	.	.	4g\	-da-	4b\	-da-	.	.	.	8D\L|
8G\|	.	.	.	.	.	.	.	.	.	.	.	.	.	.	8G\|
8BB\|	.	4g/|	4b/|	.	.	.	.	4g\	-te	4b\	-te	.	.	.	8BB\|
8D\J|	.	.	.	.	.	.	.	.	.	.	.	.	.	.	8D\J|
=4	=4	=4	=4	=4	=4	=4	=4	=4	=4	=4	=4	=4	=4	=4	=4
*	*	*	*	*	*	*	*	*2\right	*	*2\right	*	*	*	*	*
4GG/	.	(16g/LL	(16b\LL	.	.	.	.	2.g\	Do-	2.b\	Do-	.	1ryy	1ryy	4GG/
.	.	16f#/	16a\	.	.	.	.	.	.	.	.	.	.	.	.
.	.	16g/)	16b\)	.	.	.	.	.	.	.	.	.	.	.	.
.	.	16a/JJ|	16cc\JJ|	.	.	.	.	.	.	.	.	.	.	.	.
4r	.	(16g/LL	(16b\LL	.	.	.	.	.	.	.	.	.	.	.	4r
.	.	16f#/	16a\	.	.	.	.	.	.	.	.	.	.	.	.
.	.	16g/)	16b\)	.	.	.	.	.	.	.	.	.	.	.	.
.	.	16a/JJ|	16cc\JJ|	.	.	.	.	.	.	.	.	.	.	.	.
4GG/	.	(16g/LL	(16b\LL	.	.	.	.	.	.	.	.	.	.	.	4GG/
.	.	16f#/	16a\	.	.	.	.	.	.	.	.	.	.	.	.
.	.	16g/)	16b\)	.	.	.	.	.	.	.	.	.	.	.	.
.	.	16a/JJ|	16cc\JJ|	.	.	.	.	.	.	.	.	.	.	.	.
4r	.	(16g/LL	(16b\LL	.	.	.	.	4g\	-mi-	4b\	-mi-	.	.	.	4r
.	.	16f#/	16a\	.	.	.	.	.	.	.	.	.	.	.	.
.	.	16g/)	16b\)	.	.	.	.	.	.	.	.	.	.	.	.
.	.	16a/JJ|	16cc\JJ|	.	.	.	.	.	.	.	.	.	.	.	.
=5	=5	=5	=5	=5	=5	=5	=5	=5	=5	=5	=5	=5	=5	=5	=5
8r	.	4g/	4b\	4r	.	4r	.	4g\	-num	4b\	-nu(m)	.	1ryy	1ryy	8r
8G\L|	.	.	.	.	.	.	.	.	.	.	.	.	.	.	8G\L|
8F#\|	.	4b/|	4dd\|	4G\	Lau-	4G/	Lau-	2b\	o-	2dd\	o-	.	.	.	8F#\|
8G\J|	.	.	.	.	.	.	.	.	.	.	.	.	.	.	8G\J|
8D\L|	.	4b/|	4dd\|	4G\	-da-	4G/	-da-	.	.	.	.	.	.	.	8D\L|
8G\|	.	.	.	.	.	.	.	.	.	.	.	.	.	.	8G\|
8BB\|	.	4b/|	4dd\|	4G\	-te	4G/	-te	4b\	-mnes	4dd\	-mnes	.	.	.	8BB\|
8D\J|	.	.	.	.	.	.	.	.	.	.	.	.	.	.	8D\J|
=6	=6	=6	=6	=6	=6	=6	=6	=6	=6	=6	=6	=6	=6	=6	=6
4GG/	.	(16b/LL	(16dd\LL	4.G\	Do-	4.G/	Do-	2b\	gen-	2dd\	gen-	.	1ryy	1ryy	4GG/
.	.	16a/	16cc\	.	.	.	.	.	.	.	.	.	.	.	.
.	.	16b/)	16dd\)	.	.	.	.	.	.	.	.	.	.	.	.
.	.	16cc/JJ|	16ee\JJ|	.	.	.	.	.	.	.	.	.	.	.	.
8G\L	.	(16b/LL	(16dd\LL	.	.	.	.	.	.	.	.	.	.	.	8G\L
.	.	16a/	16cc\	.	.	.	.	.	.	.	.	.	.	.	.
8F#\J	.	16b/)	16dd\)	8G\	-mi-	8G/	-mi-	.	.	.	.	.	.	.	8F#\J
.	.	16cc/JJ|	16ee\JJ|	.	.	.	.	.	.	.	.	.	.	.	.
*	*	*	*	*2\right	*	*	*	*	*	*	*	*	*	*	*
!	!	!	!LO:LB:g=original	!	!	!	!	!	!	!	!	!	!	!	!
4G\	.	(16b/LL	(16dd\LL	2G\	-num	2G/	-num	2b\	-tes	2dd\	-tes	.	.	.	4G\
.	.	16a/	16cc\	.	.	.	.	.	.	.	.	.	.	.	.
.	.	16b/)	16dd\)	.	.	.	.	.	.	.	.	.	.	.	.
.	.	16cc/JJ|	16ee\JJ|	.	.	.	.	.	.	.	.	.	.	.	.
8G\L	.	(16b/LL	(16dd\LL	.	.	.	.	.	.	.	.	.	.	.	8G\L
.	.	16a/	16cc\	.	.	.	.	.	.	.	.	.	.	.	.
8F#\J	.	16b/)	16dd\)	.	.	.	.	.	.	.	.	.	.	.	8F#\J
.	.	16cc/JJ|	16ee\JJ|	.	.	.	.	.	.	.	.	.	.	.	.
!LO:LB:g=original	!	!LO:LB:g=original	!	!	!	!	!	!	!	!	!	!	!	!	!LO:LB:g=original
=7	=7	=7	=7	=7	=7	=7	=7	=7	=7	=7	=7	=7	=7	=7	=7
!LO:TX:t=P:problem=mixed beam	!	!	!	!	!	!	!	!	!	!	!	!	!	!	!LO:TX:t=P:problem=mixed beam
8GG/L	.	8b\L	8dd\L	4r	.	4r	.	4r	.	4r	.	.	1ryy	1ryy	8GG/L
8G\	.	8gg\J	8bb\J	.	.	.	.	.	.	.	.	.	.	.	8G\
8F#\	.	[4gg\	[4bb\	4G\	lau-	4d\	lau-	4b\	lau-	4dd\	lau-	.	.	.	8F#\
8G\J	.	.	.	.	.	.	.	.	.	.	.	.	.	.	8G\J
4GG/	.	16gg\LL]	16bb\LL]	4G\	-da-	4d\	-da-	4b\	-da-	4dd\	-da-	.	.	.	4GG/
.	.	16ff#\	16aa\	.	.	.	.	.	.	.	.	.	.	.	.
.	.	16ee\	16gg\	.	.	.	.	.	.	.	.	.	.	.	.
.	.	16dd\JJ	16ff#\JJ	.	.	.	.	.	.	.	.	.	.	.	.
4r	.	16cc\LL	16ee\LL	4G\	-te	4d\	-te	4b\	-te	4dd\	-te	.	.	.	4r
.	.	16b\	16dd\	.	.	.	.	.	.	.	.	.	.	.	.
.	.	16a\	16cc\	.	.	.	.	.	.	.	.	.	.	.	.
.	.	16g\JJ	16b\JJ	.	.	.	.	.	.	.	.	.	.	.	.
=8	=8	=8	=8	=8	=8	=8	=8	=8	=8	=8	=8	=8	=8	=8	=8
*	*	*	*	*	*	*2\right	*	*	*	*	*	*	*	*	*
8D\L	X 7	8a\L	8cc\L	2d\	e-	2f#\	e-	2a\	e-	2cc\	e-	.	1ryy	1ryy	8D\L
8d\	.	8ff#\J	8aa\J	.	.	.	.	.	.	.	.	.	.	.	8d\
8c\	.	[4ff#\	[4aa\	.	.	.	.	.	.	.	.	.	.	.	8c\
8d\J	.	.	.	.	.	.	.	.	.	.	.	.	.	.	8d\J
4D\	.	16ff#\LL]	16aa\LL]	2D/	-um	2f#\	-um	2a\	-um	2cc\	-um	.	.	.	4D/
.	.	16ee\	16gg\	.	.	.	.	.	.	.	.	.	.	.	.
.	.	16dd\	16ff#\	.	.	.	.	.	.	.	.	.	.	.	.
.	.	16cc\JJ	16ee\JJ	.	.	.	.	.	.	.	.	.	.	.	.
4r	.	16b/LL	16dd\LL	.	.	.	.	.	.	.	.	.	.	.	4r
.	.	16a/	16cc\	.	.	.	.	.	.	.	.	.	.	.	.
.	.	16g/	16b\	.	.	.	.	.	.	.	.	.	.	.	.
.	.	16f#/JJ	16a\JJ	.	.	.	.	.	.	.	.	.	.	.	.
=9	=9	=9	=9	=9	=9	=9	=9	=9	=9	=9	=9	=9	=9	=9	=9
4GG/	.	4.gT/	4.bt\	(2G\	o-	2.d\	o-	4.g\	o-	4.b\	o-	.	1ryy	1ryy	4GG/
4G\	.	.	.	.	.	.	.	.	.	.	.	.	.	.	4G\
.	.	16f#/LL	16a\LL	.	.	.	.	(16f#\LL	.	16a\LL	.	.	.	.	.
.	.	16g/JJ	16b\JJ	.	.	.	.	16g\JJ)	.	16b\JJ	.	.	.	.	.
4F#\	6 5	4a/	4cc\	4F#\)	.	.	.	4a\	.	4cc\	.	.	.	.	4F#\
4G\	.	4g/	4b/	4G\	-mnes	4d\	-mnes	4g\	-mnes	4b\	-mnes	.	.	.	4G\
=10	=10	=10	=10	=10	=10	=10	=10	=10	=10	=10	=10	=10	=10	=10	=10
.	.	8qqa/	8qqcc/	.	.	.	.	.	.	.	.	.	.	.	.
8r	.	2g/	2bt/	4.d\	po-	4.d\	po-	4.g\	po-	4.b\	po-	.	1ryy	1ryy	8r
8D\L	6 4	.	.	.	.	.	.	.	.	.	.	.	.	.	8D\L
8G\|	.	.	.	.	.	.	.	.	.	.	.	.	.	.	8G\
8B\J|	.	.	.	8D/	-pu-	8d\	-pu-	8f#\	-pu-	8a\	-pu-	.	.	.	8B\J
!	!	!	!	!	!	!	!	!	!	!LO:LB:g=original	!	!	!	!	!
8d\L	5 3	2f#/	2a/	2D/	-li	2d\	-li	2f#\	-li	2a\	-li	.	.	.	8d\L
8c\	.	.	.	.	.	.	.	.	.	.	.	.	.	.	8c\
8B\	.	.	.	.	.	.	.	.	.	.	.	.	.	.	8B\
8A\J	.	.	.	.	.	.	.	.	.	.	.	.	.	.	8A\J
!	!	!	!	!	!	!	!	!LO:LB:g=original	!	!	!	!	!	!	!
=11	=11	=11	=11	=11	=11	=11	=11	=11	=11	=11	=11	=11	=11	=11	=11
8G\L	.	2r	8b\L	8.G\	quo-	8.B\	quo-	8.g\	quo-	8.dd\	quo-	.	1ryy	1ryy	8G\L
8G\	.	.	[8bb\J	.	.	.	.	.	.	.	.	.	.	.	8G\
.	.	.	.	16G\	-ni-	16B\	-ni-	16g\	-ni-	16dd\	-ni-	.	.	.	.
8G\	.	.	16bb\LL]	4G\	-am	4B\	-am	4g\	-am	4dd\	-am	.	.	.	8G\
.	.	.	16aa\	.	.	.	.	.	.	.	.	.	.	.	.
8G\J	.	.	16gg\	.	.	.	.	.	.	.	.	.	.	.	8G\J
.	.	.	16ff#\JJ	.	.	.	.	.	.	.	.	.	.	.	.
8G\L	.	8b\L	8gg\L	4G\	con-	4B\	con-	4g\	con-	4dd\	con-	.	.	.	8G\L
8G\	.	[8bb\J	[8gg\J	.	.	.	.	.	.	.	.	.	.	.	8G\
8G\	.	16bb\LL]	16gg\LL]	4G\	-fir-	4B\	-fir-	4g\	-fir-	4dd\	-fir-	.	.	.	8G\
.	.	16aa\	16ff#\	.	.	.	.	.	.	.	.	.	.	.	.
8G\J	.	16gg\	16ee\	.	.	.	.	.	.	.	.	.	.	.	8G\J
.	.	16ff#\JJ	16dd\JJ	.	.	.	.	.	.	.	.	.	.	.	.
!	!	!	!	!LO:LB:g=original	!	!LO:LB:g=original	!	!	!	!	!	!	!	!	!
=12	=12	=12	=12	=12	=12	=12	=12	=12	=12	=12	=12	=12	=12	=12	=12
8G\L	X 6	8gg\L	8ee\L	4.G#X\	-ma-	4.B\	-ma-	4.g\	-ma-	4.ee\	-ma-	.	1ryy	1ryy	8G\L
8G\	.	[8gg\J	[8ee\J	.	.	.	.	.	.	.	.	.	.	.	8G\
8G\	.	16gg\LL]	16ee\LL]	.	.	.	.	.	.	.	.	.	.	.	8G\
.	.	16ff#\	16dd\	.	.	.	.	.	.	.	.	.	.	.	.
8G\J	.	16ee\	16cc#X\	8G#\	-ta	8B\	-ta	8g\	-ta	8ee\	-ta	.	.	.	8G\J
.	.	16dd\JJ	16b\JJ	.	.	.	.	.	.	.	.	.	.	.	.
8G\L	4 2	8ee\L	(8cc#X\L	2G#\	est	2c#X\	est	2a\	est	2ee\	est	.	.	.	8G\L
8G\	.	[8ee\J	8cc#\J	.	.	.	.	.	.	.	.	.	.	.	8G\
8G\	.	16ee\LL]	16cc#\LL)	.	.	.	.	.	.	.	.	.	.	.	8G\
.	.	16dd\	16b\	.	.	.	.	.	.	.	.	.	.	.	.
8G\J	.	16cc#X\	16a\	.	.	.	.	.	.	.	.	.	.	.	8G\J
.	.	16b\JJ	16g\JJ	.	.	.	.	.	.	.	.	.	.	.	.
!	!	!	!LO:LB:g=original	!	!	!	!	!	!	!	!	!	!	!	!
=13	=13	=13	=13	=13	=13	=13	=13	=13	=13	=13	=13	=13	=13	=13	=13
8F#\L	7 5|	8cc#\L	8a\L	4F#\	su-	4c#X\	su-	4a\	su-	4ee\	su-	.	1ryy	1ryy	8F#\L
8F#\	.	[8cc#\J	[8aa\J	.	.	.	.	.	.	.	.	.	.	.	8F#\
8F#\	.	16cc#\LL]	16aa\LL]	4F#\	-per	4c#\	-per	4a\	-per	4ee\	-per	.	.	.	8F#\
.	.	16b\	16gg\	.	.	.	.	.	.	.	.	.	.	.	.
8F#\J	.	16a\	16ff#\	.	.	.	.	.	.	.	.	.	.	.	8F#\J
.	.	16g\JJ	16ee\JJ	.	.	.	.	.	.	.	.	.	.	.	.
!	!	!LO:LB:g=original	!	!	!	!	!	!	!	!	!	!	!	!	!
8F#\L	.	8a\L	8ff#\L	2F#\	nos	2c#\	nos	2a\	nos	2ee\	nos	.	.	.	8F#\L
8F#\	.	[8aa\J	[8ff#\J	.	.	.	.	.	.	.	.	.	.	.	8F#\
8F#\	.	16aa\LL]	16ff#\LL]	.	.	.	.	.	.	.	.	.	.	.	8F#\
.	.	16gg\	16ee\	.	.	.	.	.	.	.	.	.	.	.	.
8F#\J	.	16ff#\	16dd\	.	.	.	.	.	.	.	.	.	.	.	8F#\J
.	.	16ee\JJ	16cc#X\JJ	.	.	.	.	.	.	.	.	.	.	.	.
!LO:LB:g=original	!	!	!	!	!	!	!	!	!	!	!	!	!	!	!LO:LB:g=original
=14	=14	=14	=14	=14	=14	=14	=14	=14	=14	=14	=14	=14	=14	=14	=14
8F#\L	X 6	8ff#\L	(8dd\L	4r	.	4r	.	4r	.	4r	.	.	1ryy	1ryy	8F#\L
8F#\	.	[8ff#\J	8dd\J	.	.	.	.	.	.	.	.	.	.	.	8F#\
8F#\	.	16ff#\LL]	16dd\LL)	4F#\	mi-	4A/	mi-	4a\	mi-	4dd\	mi-	.	.	.	8F#\
.	.	16ee\	16cc#X\	.	.	.	.	.	.	.	.	.	.	.	.
8F#\J	.	16dd\	16b\	.	.	.	.	.	.	.	.	.	.	.	8F#\J
.	.	16cc#X\JJ	16a\JJ	.	.	.	.	.	.	.	.	.	.	.	.
8F#\L	4 2	8dd\L	8b/L	4F#\	-se-	4G/	-se-	4b\	-se-	4dd\	-se-	.	.	.	8F#\L
8F#\	.	[8dd\J	[8b/J	.	.	.	.	.	.	.	.	.	.	.	8F#\
8F#\	.	16dd\LL]	16b/LL]	4F#\	-ri-	4G/	-ri-	4b\	-ri-	4dd\	-ri-	.	.	.	8F#\
.	.	16cc#X\	16a/	.	.	.	.	.	.	.	.	.	.	.	.
8F#\J	.	16b\	16g/	.	.	.	.	.	.	.	.	.	.	.	8F#\J
.	.	16a\JJ	16f#/JJ	.	.	.	.	.	.	.	.	.	.	.	.
=15	=15	=15	=15	=15	=15	=15	=15	=15	=15	=15	=15	=15	=15	=15	=15
!	!	!	!LO:TX:t=P:problem=mixed beam	!	!	!	!	!	!	!	!	!	!	!	!
8E\L	X 7	8b/L	8g/L	4.E\	-cor-	4.G/	-cor-	4.g\	-cor-	4.dd\	-cor-	.	1ryy	1ryy	8E\L
8E\	.	[8b/J	[8gg\J	.	.	.	.	.	.	.	.	.	.	.	8E\
8E\	.	16b/LL]	16gg\LL]	.	.	.	.	.	.	.	.	.	.	.	8E\
.	.	16a/	16ff#\	.	.	.	.	.	.	.	.	.	.	.	.
8E\J	.	16g/	16ee\	8E\	-di-	8G/	-di-	8g\	-di-	8dd\	-di-	.	.	.	8E\J
.	.	16f#/JJ	16dd\JJ	.	.	.	.	.	.	.	.	.	.	.	.
!	!	!LO:TX:t=P:problem=mixed beam	!	!	!	!	!	!	!	!	!	!	!	!	!
8E\L	.	8g/L	8ee\L	2E\	-a	2G/	-a	2g\	-a	2dd\	-a	.	.	.	8E\L
8E\	.	[8gg\J	[8ee\J	.	.	.	.	.	.	.	.	.	.	.	8E\
8E\	.	16gg\LL]	16ee\LL]	.	.	.	.	.	.	.	.	.	.	.	8E\
.	.	16ff#\	16dd\	.	.	.	.	.	.	.	.	.	.	.	.
8E\J	.	16ee\	16cc#X\	.	.	.	.	.	.	.	.	.	.	.	8E\J
.	.	16dd\JJ	16b\JJ	.	.	.	.	.	.	.	.	.	.	.	.
=16	=16	=16	=16	=16	=16	=16	=16	=16	=16	=16	=16	=16	=16	=16	=16
8E\L	X 6/	8ee\L	8cc#X\L	2E\	e-	2G/	e-	2g\	e-	2cc#X\	e-	.	1ryy	1ryy	8E\L
8E\	.	[8ee\J	[8cc#\J	.	.	.	.	.	.	.	.	.	.	.	8E\
8E\	.	16ee\LL]	16cc#\LL]	.	.	.	.	.	.	.	.	.	.	.	8E\
.	.	16dd\	16b\	.	.	.	.	.	.	.	.	.	.	.	.
8E\J	.	16cc#X\	16a\	.	.	.	.	.	.	.	.	.	.	.	8E\J
.	.	16b\JJ	16g\JJ	.	.	.	.	.	.	.	.	.	.	.	.
8G\L	4/ 2	8cc#X\L	8a/L	2G\	-jus	2e\	-jus	2a\	-jus	2cc#\	-jus	.	.	.	8G\L
8G\	.	[8cc#\J	[8a/J	.	.	.	.	.	.	.	.	.	.	.	8G\
8G\	.	16cc#\LL]	16a/LL]	.	.	.	.	.	.	.	.	.	.	.	8G\
.	.	16b\	16g/	.	.	.	.	.	.	.	.	.	.	.	.
8G\J	.	16a\	16f#/	.	.	.	.	.	.	.	.	.	.	.	8G\J
.	.	16g\JJ	16e/JJ	.	.	.	.	.	.	.	.	.	.	.	.
=17	=17	=17	=17	=17	=17	=17	=17	=17	=17	=17	=17	=17	=17	=17	=17
4F#\	X 6	4a/	(16d/LL	2F#\	et	2f#\	et	2a\	et	2dd\	et	.	1ryy	1ryy	4F#\
.	.	.	16f#/	.	.	.	.	.	.	.	.	.	.	.	.
.	.	.	16a/)	.	.	.	.	.	.	.	.	.	.	.	.
.	.	.	16dd/JJ|	.	.	.	.	.	.	.	.	.	.	.	.
4r	.	(16d/LL	(16f#/LL	.	.	.	.	.	.	.	.	.	.	.	4r
.	.	16f#/	16a/	.	.	.	.	.	.	.	.	.	.	.	.
.	.	16a/)	16dd/)	.	.	.	.	.	.	.	.	.	.	.	.
.	.	16dd/JJ|	16ff#/JJ|	.	.	.	.	.	.	.	.	.	.	.	.
4d\	.	(16f#/LL	(16a\LL	8.d\	ve-	8.f#\	ve-	8.a\	ve-	8.dd\	ve-	.	.	.	4d\
.	.	16a/	16dd\	.	.	.	.	.	.	.	.	.	.	.	.
.	.	16dd/)	16ff#\)	.	.	.	.	.	.	.	.	.	.	.	.
.	.	16ff#/JJ|	16aa\JJ|	16d\	-ri-	16f#\	-ri-	16a\	-ri-	16dd\	-ri-	.	.	.	.
4r	.	(16a\LL	(16dd\LL	4d\	-tas	4f#\	-tas	4a\	-tas	4dd\	-tas	.	.	.	4r
.	.	16cc\	16ff#\	.	.	.	.	.	.	.	.	.	.	.	.
.	.	16ff#\)	16aa\)	.	.	.	.	.	.	.	.	.	.	.	.
.	.	16aa\JJ	16ccc#X\JJ|	.	.	.	.	.	.	.	.	.	.	.	.
!	!	!LO:LB:g=original	!LO:LB:g=original	!	!	!	!	!	!	!	!	!	!	!	!
=18	=18	=18	=18	=18	=18	=18	=18	=18	=18	=18	=18	=18	=18	=18	=18
4D\	.	8ff#\L	8ddd\L	4.d\	Do-	4.f#\	Do-	4.a\	Do-	4.dd\	Do-	.	1ryy	1ryy	4D\
.	.	16aa\L	16ccc#X\L	.	.	.	.	.	.	.	.	.	.	.	.
.	.	16gg\JJ	16bb\JJ	.	.	.	.	.	.	.	.	.	.	.	.
8r	.	16ff#\LL	16aa\LL	.	.	.	.	.	.	.	.	.	.	.	8r
.	.	16ee\	16gg\	.	.	.	.	.	.	.	.	.	.	.	.
8d\	.	16dd\	16ff#\	8d\	-mi-	8f#\	-mi-	8a\	-mi-	8dd\	-mi-	.	.	.	8d\
.	.	16cc#X\JJ	16ee\JJ	.	.	.	.	.	.	.	.	.	.	.	.
!	!	!LO:TX:t=P:problem=mixed beam	!	!	!	!	!	!	!	!	!	!	!	!	!
4D\	.	8dd\L	8dd\L	2d\	-ni	2f#\	-ni	2a\	-ni	2dd\	-ni	.	.	.	4D/
.	.	16a/L	16cc#X\L	.	.	.	.	.	.	.	.	.	.	.	.
.	.	16g/JJ	16b\JJ	.	.	.	.	.	.	.	.	.	.	.	.
8r	.	16f#/LL	16a/LL	.	.	.	.	.	.	.	.	.	.	.	8r
.	.	16e/	16g/	.	.	.	.	.	.	.	.	.	.	.	.
8d\	.	16d/	16f#/	.	.	.	.	.	.	.	.	.	.	.	8d\
.	.	16c#X/JJ	16e/JJ	.	.	.	.	.	.	.	.	.	.	.	.
!	!	!	!	!	!	!	!	!LO:LB:g=original	!	!	!	!	!	!	!
=19	=19	=19	=19	=19	=19	=19	=19	=19	=19	=19	=19	=19	=19	=19	=19
4D\	.	4d/	4d/	4r	.	4r	.	4r	.	4r	.	.	1ryy	1ryy	4D\
*	*reverse	*	*	*	*	*	*	*	*	*	*	*	*	*	*
4F#\	6 5n	4a/	4ccn\	8F#\	ma-	8A/	ma-	8d\	ma-	8ccn\	ma-	.	.	.	4F#\
.	.	.	.	8F#\	-net	8A/	-net	8d\	-net	8cc\	-net	.	.	.	.
!	!	!	!	!	!	!	!	!	!	!LO:LB:g=original	!	!	!	!	!
4G\	.	4g/	4b\	4G\	in	4G/	in	4d\	in	4b\	in	.	.	.	4G\
4E\	.	4b/	4gg\	4E\	ae-	4B\	ae-	4g\	ae-	4ee\	ae-	.	.	.	4E\
=20	=20	=20	=20	=20	=20	=20	=20	=20	=20	=20	=20	=20	=20	=20	=20
*	*	*	*Xtuplet	*	*	*	*	*	*	*	*	*	*	*	*
8A\L	6 4	4a/	12ff#t\L	2A\	-ter-	1A	-ter-	2f#\	-ter-	2.dd\	-ter-	.	1ryy	1ryy	8A\L
.	.	.	12ee\	.	.	.	.	.	.	.	.	.	.	.	.
8A\	.	.	.	.	.	.	.	.	.	.	.	.	.	.	8A\
.	.	.	12dd\J	.	.	.	.	.	.	.	.	.	.	.	.
*	*	*2\right	*	*	*	*	*	*	*	*	*	*	*	*	*
8A\	.	2dd\	12ff#t\L	.	.	.	.	.	.	.	.	.	.	.	8A\
.	.	.	12ee\	.	.	.	.	.	.	.	.	.	.	.	.
8A\J	.	.	.	.	.	.	.	.	.	.	.	.	.	.	8A\J
.	.	.	12dd\J	.	.	.	.	.	.	.	.	.	.	.	.
.	.	.	8qqa/	.	.	.	.	.	.	.	.	.	.	.	.
!	!	!	!	!LO:LB:g=original	!	!	!	!	!	!	!	!	!	!	!
8AA/L	5 #	.	2eeT\	2AA/	.	.	.	2eT\	.	.	.	.	.	.	8AA/L
8AA/	.	.	.	.	.	.	.	.	.	.	.	.	.	.	8AA/
8AA/	.	4cc#Xt\	.	.	.	.	.	.	.	4cc#X\	.	.	.	.	8AA/
8AA/J	.	.	.	.	.	.	.	.	.	.	.	.	.	.	8AA/J
!	!	!	!	!	!	!	!	!	!	!	!	!	!	!	!LO:LB:g=original
=21	=21	=21	=21	=21	=21	=21	=21	=21	=21	=21	=21	=21	=21	=21	=21
4D/	.	4dd\	4dd\	4D/	-num.	4A/	-num.	4f#\	-num	4dd\	-num.	.	1ryy	1ryy	4D/
!	!	!	!LO:TX:t=P:problem=mixed beam	!	!	!	!	!	!	!	!	!	!	!	!
8r	.	8ff#\L	8d/L	4r	.	4r	.	4r	.	4r	.	.	.	.	8r
!LO:TX:b:i:t=Solo.	!	!	!	!	!	!	!	!	!	!	!	!	!	!	!LO:TX:a:i:t=Solo
8G\	.	16gg\L	16bb\L	.	.	.	.	.	.	.	.	.	.	.	8G\
.	.	16gg\JJ	16bb\JJ	.	.	.	.	.	.	.	.	.	.	.	.
!LO:LB:g=original	!	!	!	!	!	!	!	!	!	!	!	!	!	!	!
4A\	6 4	16ff#\LL	16aa\LL	2r	.	2r	.	2r	.	2r	.	.	.	.	4A\
.	.	16ff#\	16aa\	.	.	.	.	.	.	.	.	.	.	.	.
.	.	16ee\	16gg\	.	.	.	.	.	.	.	.	.	.	.	.
.	.	16ee\JJ	16gg\JJ	.	.	.	.	.	.	.	.	.	.	.	.
4AA/	7 #	16dd\LL	16ff#\LL	.	.	.	.	.	.	.	.	.	.	.	4AA/
.	.	16dd\	16ff#\	.	.	.	.	.	.	.	.	.	.	.	.
.	.	16cc#X\	16ee\	.	.	.	.	.	.	.	.	.	.	.	.
!	!	!	!	!	!	!LO:TX:b:i:t=Volti.	!	!	!	!	!	!	!	!	!
.	.	16cc#\JJ	16ee\JJ	.	.	.	.	.	.	.	.	.	.	.	.
!	!	!	!	!	!	!LO:PB:g=original	!	!	!	!	!	!	!	!	!
=22	=22	=22	=22	=22	=22	=22	=22	=22	=22	=22	=22	=22	=22	=22	=22
!	!	!LO:TX:t=P:problem=mixed beam	!	!LO:TX:a:t=6.	!	!LO:TX:a:t=6.	!	!LO:TX:a:t=4.	!	!LO:TX:a:t=2.	!	!	!	!	!
4D/	.	8dd\L	8ff#L 8a 8d/	00r	.	00r	.	00r	.	0r	.	.	1ryy	1ryy	4D/
.	.	8a/J	8a/J	.	.	.	.	.	.	.	.	.	.	.	.
8r	.	8d/L	8d/L	.	.	.	.	.	.	.	.	.	.	.	8r
8G\	.	16g/L	16b/L	.	.	.	.	.	.	.	.	.	.	.	8G\
.	.	16g/JJ	16b/JJ	.	.	.	.	.	.	.	.	.	.	.	.
4A\	6 4	16f#/LL	16a/LL	.	.	.	.	.	.	.	.	.	.	.	4A\
.	.	16f#/	16a/	.	.	.	.	.	.	.	.	.	.	.	.
.	.	16e/	16g/	.	.	.	.	.	.	.	.	.	.	.	.
.	.	16e/JJ	16g/JJ	.	.	.	.	.	.	.	.	.	.	.	.
4AA/	7 #	16d/LL	16f#/LL	.	.	.	.	.	.	.	.	.	.	.	4AA/
.	.	16d/	16f#/	.	.	.	.	.	.	.	.	.	.	.	.
.	.	16c#X/	16e/	.	.	.	.	.	.	.	.	.	.	.	.
.	.	16c#/JJ	16e/JJ	.	.	.	.	.	.	.	.	.	.	.	.
=23	=23	=23	=23	=23	=23	=23	=23	=23	=23	=23	=23	=23	=23	=23	=23
8D\L	.	8d/L	(16d/LL	.	.	.	.	.	.	.	.	.	1ryy	1ryy	8D\L
.	.	.	16a/	.	.	.	.	.	.	.	.	.	.	.	.
8d\J	.	16a/L	16ff#/	.	.	.	.	.	.	.	.	.	.	.	8d\J
.	.	16ff#/JJ	16aa/JJ)	.	.	.	.	.	.	.	.	.	.	.	.
8D\L	.	8d/L	(16d/LL	.	.	.	.	.	.	.	.	.	.	.	8D\L
.	.	.	16a/	.	.	.	.	.	.	.	.	.	.	.	.
8d\J	.	16a/L	16ff#/	.	.	.	.	.	.	.	.	.	.	.	8d\J
.	.	16ff#/JJ	16aa/JJ)	.	.	.	.	.	.	.	.	.	.	.	.
!LO:TX:b:i:t=tutti.	!	!	!	!	!	!	!	!	!	!	!	!	!	!	!LO:TX:b:i:t=Tutti.
8D/L	.	4ff# 4a 4d/	4ff# 4a 4d/	.	.	.	.	.	.	.	.	.	.	.	8D/L
8Cn/	X 2	.	.	.	.	.	.	.	.	.	.	.	.	.	8Cn/
8BB/	X 6	4r	4r	.	.	.	.	.	.	.	.	.	.	.	8BB/
8AA/J	X 6	.	.	.	.	.	.	.	.	.	.	.	.	.	8AA/J
!	!	!LO:LB:g=original	!LO:LB:g=original	!	!	!	!	!	!	!	!	!	!	!	!
=24	=24	=24	=24	=24	=24	=24	=24	=24	=24	=24	=24	=24	=24	=24	=24
!LO:TX:t=P:problem=mixed beam	!	!LO:TX:a:t=2.	!	!	!	!	!	!	!	!	!	!	!	!	!LO:TX:t=P:problem=mixed beam
8GG/L	.	0r	4r	.	.	.	.	.	.	4r	.	.	1ryy	1ryy	8GG/L
8G\|	.	.	.	.	.	.	.	.	.	.	.	.	.	.	8G\|
8F#\|	.	.	4g/|	.	.	.	.	.	.	2g/	glo-	.	.	.	8F#\|
8G\J|	.	.	.	.	.	.	.	.	.	.	.	.	.	.	8G\J|
8D\L|	.	.	4g/|	.	.	.	.	.	.	.	.	.	.	.	8D\L|
8G\|	.	.	.	.	.	.	.	.	.	.	.	.	.	.	8G\|
8BB\|	.	.	4g/|	.	.	.	.	.	.	8g/	-ri-	.	.	.	8BB\|
8D\J|	.	.	.	.	.	.	.	.	.	8g/	-a	.	.	.	8D\J|
=25	=25	=25	=25	=25	=25	=25	=25	=25	=25	=25	=25	=25	=25	=25	=25
4GG/	.	.	(16g/LL	.	.	.	.	.	.	2g/	Pa-	.	1ryy	1ryy	4GG/
.	.	.	16f#/	.	.	.	.	.	.	.	.	.	.	.	.
.	.	.	16g/)	.	.	.	.	.	.	.	.	.	.	.	.
.	.	.	16a/JJ|	.	.	.	.	.	.	.	.	.	.	.	.
4r	.	.	(16g/LL	.	.	.	.	.	.	.	.	.	.	.	4r
.	.	.	16f#/	.	.	.	.	.	.	.	.	.	.	.	.
.	.	.	16g/)	.	.	.	.	.	.	.	.	.	.	.	.
.	.	.	16a/JJ|	.	.	.	.	.	.	.	.	.	.	.	.
4GG/	.	.	(16g/LL	.	.	.	.	.	.	2g/	-tri	.	.	.	4GG/
.	.	.	16f#/	.	.	.	.	.	.	.	.	.	.	.	.
.	.	.	16g/)	.	.	.	.	.	.	.	.	.	.	.	.
.	.	.	16a/JJ|	.	.	.	.	.	.	.	.	.	.	.	.
4r	.	.	(16g/LL	.	.	.	.	.	.	.	.	.	.	.	4r
.	.	.	16f#/	.	.	.	.	.	.	.	.	.	.	.	.
.	.	.	16g/)	.	.	.	.	.	.	.	.	.	.	.	.
.	.	.	16a/JJ|	.	.	.	.	.	.	.	.	.	.	.	.
=26	=26	=26	=26	=26	=26	=26	=26	=26	=26	=26	=26	=26	=26	=26	=26
8r	.	4r	4g/	0r	.	0r	.	4r	.	4r	.	.	1ryy	1ryy	8r
8G\L|	.	.	.	.	.	.	.	.	.	.	.	.	.	.	8G\L|
8F#\|	.	4g/|	4b/|	.	.	.	.	2g\	glo-	2b\	glo-	.	.	.	8F#\|
8G\J|	.	.	.	.	.	.	.	.	.	.	.	.	.	.	8G\J|
8D\L|	.	4g/|	4b/|	.	.	.	.	.	.	.	.	.	.	.	8D\L|
8G\|	.	.	.	.	.	.	.	.	.	.	.	.	.	.	8G\|
8BB\|	.	4g/|	4b/|	.	.	.	.	8g\	-ri-	8b\	-ri-	.	.	.	8BB\|
8D\J|	.	.	.	.	.	.	.	8g\	-a	8b\	-a	.	.	.	8D\J|
=27	=27	=27	=27	=27	=27	=27	=27	=27	=27	=27	=27	=27	=27	=27	=27
4GG/	.	(16g/LL	(16b\LL	.	.	.	.	4.g\	Fi-	4.b\	Fi-	.	1ryy	1ryy	4GG/
.	.	16f#/	16a\	.	.	.	.	.	.	.	.	.	.	.	.
.	.	16g/)	16b\)	.	.	.	.	.	.	.	.	.	.	.	.
.	.	16a/JJ|	16cc\JJ|	.	.	.	.	.	.	.	.	.	.	.	.
4r	.	(16g/LL	(16b\LL	.	.	.	.	.	.	.	.	.	.	.	4r
.	.	16f#/	16a\	.	.	.	.	.	.	.	.	.	.	.	.
.	.	16g/)	16b\)	.	.	.	.	8g\	-li-	8b\	-li-	.	.	.	.
.	.	16a/JJ|	16cc\JJ|	.	.	.	.	.	.	.	.	.	.	.	.
4GG/	.	(16g/LL	(16b\LL	.	.	.	.	2g\	-o	2b\	-o	.	.	.	4GG/
.	.	16f#/	16a\	.	.	.	.	.	.	.	.	.	.	.	.
.	.	16g/)	16b\)	.	.	.	.	.	.	.	.	.	.	.	.
.	.	16a/JJ|	16cc\JJ|	.	.	.	.	.	.	.	.	.	.	.	.
4r	.	(16g/LL	(16b\LL	.	.	.	.	.	.	.	.	.	.	.	4r
.	.	16f#/	16a\	.	.	.	.	.	.	.	.	.	.	.	.
.	.	16g/)	16b\)	.	.	.	.	.	.	.	.	.	.	.	.
.	.	16a/JJ|	16cc\JJ|	.	.	.	.	.	.	.	.	.	.	.	.
!LO:LB:g=original	!	!	!	!	!	!	!	!	!	!	!	!	!	!	!
=28	=28	=28	=28	=28	=28	=28	=28	=28	=28	=28	=28	=28	=28	=28	=28
8r	.	4g/	4b\	4.G\	et	4.G/	et	4.b\	et	4.dd\	et	.	1ryy	1ryy	8r
8G\L|	.	.	.	.	.	.	.	.	.	.	.	.	.	.	8G\L|
8F#\|	.	4b/|	4dd\|	.	.	.	.	.	.	.	.	.	.	.	8F#\|
8G\J|	.	.	.	8G\	Spi-	8G/	Spi-	8b\	Spi-	8dd\	Spi-	.	.	.	8G\J|
!	!	!	!	!	!	!	!	!	!	!	!	!	!	!	!LO:LB:g=original
8D\L|	.	4b/|	4dd\|	4G\	-ri-	4G/	-ri-	4b\	-ri-	4dd\	-ri-	.	.	.	8D\L|
8G\|	.	.	.	.	.	.	.	.	.	.	.	.	.	.	8G\|
8BB\|	.	4b/|	4dd\|	8G\	-tu-	8G/	-tu-	8b\	-tu-	8dd\	-tu-	.	.	.	8BB\|
8D\J|	.	.	.	8G\	-i	8G/	-i	8b\	-i	8dd\	-i	.	.	.	8D\J|
=29	=29	=29	=29	=29	=29	=29	=29	=29	=29	=29	=29	=29	=29	=29	=29
4GG/	.	(16b/LL	(16dd\LL	2G\	San-	2G/	San-	2b\	San-	2dd\	San-	.	1ryy	1ryy	4GG/
.	.	16a/	16cc\	.	.	.	.	.	.	.	.	.	.	.	.
.	.	16b/)	16dd\)	.	.	.	.	.	.	.	.	.	.	.	.
.	.	16cc/JJ|	16ee\JJ|	.	.	.	.	.	.	.	.	.	.	.	.
8G\L	.	(16b/LL	(16dd\LL	.	.	.	.	.	.	.	.	.	.	.	8G\L
.	.	16a/	16cc\	.	.	.	.	.	.	.	.	.	.	.	.
8F#\J	.	16b/)	16dd\)	.	.	.	.	.	.	.	.	.	.	.	8F#\J
.	.	16cc/JJ|	16ee\JJ|	.	.	.	.	.	.	.	.	.	.	.	.
4G\	.	(16b/LL	(16dd\LL	2G\	-cto	2G/	-cto	2b\	-cto	2dd\	-cto	.	.	.	4G\
.	.	16a/	16cc\	.	.	.	.	.	.	.	.	.	.	.	.
.	.	16b/)	16dd\)	.	.	.	.	.	.	.	.	.	.	.	.
.	.	16cc/JJ|	16ee\JJ|	.	.	.	.	.	.	.	.	.	.	.	.
8G\L	.	(16b/LL	(16dd\LL	.	.	.	.	.	.	.	.	.	.	.	8G\L
.	.	16a/	16cc\	.	.	.	.	.	.	.	.	.	.	.	.
8F#\J	.	16b/)	16dd\)	.	.	.	.	.	.	.	.	.	.	.	8F#\J
.	.	16cc/JJ|	16ee\JJ|	.	.	.	.	.	.	.	.	.	.	.	.
!	!	!	!	!	!	!	!	!	!	!LO:LB:g=original	!	!	!	!	!
=30	=30	=30	=30	=30	=30	=30	=30	=30	=30	=30	=30	=30	=30	=30	=30
4G\	.	8b\L	8dd\L	2r	.	2r	.	2r	.	2r	.	.	1ryy	1ryy	4G\
.	.	8dd\J	8ffn\J	.	.	.	.	.	.	.	.	.	.	.	.
.	.	.	8qqgg/	.	.	.	.	.	.	.	.	.	.	.	.
8r	.	[4dd\	[4ff\	.	.	.	.	.	.	.	.	.	.	.	8r
*	*Xreverse	*	*	*	*	*	*	*	*	*	*	*	*	*	*
8BB/	6 5n	.	.	.	.	.	.	.	.	.	.	.	.	.	8BB/
*	*reverse	*	*	*	*	*	*	*	*	*	*	*	*	*	*
!	!	!	!LO:LB:g=original	!	!	!	!	!	!	!	!	!	!	!	!
4G\	X 7n	16dd\LL]	16ffnX\LL]	4.G\	glo-	4.d\	glo-	4.fn\	glo-	4.b\	glo-	.	.	.	4G\
.	.	16cc\	16ee\	.	.	.	.	.	.	.	.	.	.	.	.
.	.	16b\	16dd\	.	.	.	.	.	.	.	.	.	.	.	.
.	.	16a\JJ	16cc\JJ	.	.	.	.	.	.	.	.	.	.	.	.
4GG/	.	16g/LL	16b/LL	.	.	.	.	.	.	.	.	.	.	.	4GG/
.	.	16fn/	16a/	.	.	.	.	.	.	.	.	.	.	.	.
.	.	16e/	16g/	8G\	-ri-	8G/	-ri-	8f\	-ri-	8b\	-ri-	.	.	.	.
.	.	16d/JJ	16f#X/JJ	.	.	.	.	.	.	.	.	.	.	.	.
=31	=31	=31	=31	=31	=31	=31	=31	=31	=31	=31	=31	=31	=31	=31	=31
!	!	!LO:TX:t=P:problem=mixed beam	!LO:TX:t=P:problem=mixed beam	!	!	!	!	!	!	!	!	!	!	!	!
4C/	.	8c/L	8e/L	4C/	-a	4G/	-a	4e\	-a	4cc\	-a	.	1ryy	1ryy	4C/
.	.	8ee\J	8gg\J	.	.	.	.	.	.	.	.	.	.	.	.
8r	.	(4ee\	(4gg\	4r	.	4r	.	4r	.	4r	.	.	.	.	8r
8C#X/	6 5	.	.	.	.	.	.	.	.	.	.	.	.	.	8C#X/
*	*	*	*	*	*ij	*	*ij	*	*ij	*	*ij	*	*	*	*
!	!	!LO:LB:g=original	!	!	!	!	!	!LO:LB:g=original	!	!	!	!	!	!	!
4A\	7 #	16ee\LL)	16gg\LL)	4.A\	glo-	4.A/	glo-	4.g\	glo-	4.cc#X\	glo-	.	.	.	4A\
.	.	16dd\	16ff#X\	.	.	.	.	.	.	.	.	.	.	.	.
.	.	16cc#X\	16ee\	.	.	.	.	.	.	.	.	.	.	.	.
.	.	16b\JJ	16dd\JJ	.	.	.	.	.	.	.	.	.	.	.	.
4AA/	.	16a/LL	16cc#X\LL	.	.	.	.	.	.	.	.	.	.	.	4AA/
.	.	16g/	16b\	.	.	.	.	.	.	.	.	.	.	.	.
.	.	16f#/	16a\	8A\	-ri-	8A/	-ri-	8g\	-ri-	8cc#\	-ri-	.	.	.	.
.	.	16e/JJ	16g\JJ	.	.	.	.	.	.	.	.	.	.	.	.
=32	=32	=32	=32	=32	=32	=32	=32	=32	=32	=32	=32	=32	=32	=32	=32
!	!	!LO:TX:t=P:problem=mixed beam	!LO:TX:t=P:problem=mixed beam	!	!	!	!	!	!	!	!	!	!	!	!
4D\	.	8d/L	8f#/L	4D/	-a	4A/	-a	4f#X\	-a	4dd\	-a	.	1ryy	1ryy	4D/
*	*	*	*	*	*	*	*Xij	*	*Xij	*	*Xij	*	*	*	*
.	.	8aa\J	8cccn\J	.	.	.	.	.	.	.	.	.	.	.	.
8r	.	(4aa\	(4ccc\	4r	.	4r	.	4r	.	4r	.	.	.	.	8r
8F#\	6 5-	.	.	.	.	.	.	.	.	.	.	.	.	.	8F#\
4d\	X 7	16aa\LL)	16ccc\LL)	4.d\	glo-	4.f#\	glo-	4.a\	glo-	4.ccn\	glo-	.	.	.	4d\
.	.	16gg\	16bb\	.	.	.	.	.	.	.	.	.	.	.	.
.	.	16ff#\	16aa\	.	.	.	.	.	.	.	.	.	.	.	.
.	.	16ee\JJ	16gg\JJ	.	.	.	.	.	.	.	.	.	.	.	.
4D\	.	16dd\LL	16ff#\LL	.	.	.	.	.	.	.	.	.	.	.	4D/
.	.	16cc\	16ee\	.	.	.	.	.	.	.	.	.	.	.	.
.	.	16b\	16dd\	8d\	-ri-	8f#\	-ri-	8a\	-ri-	8cc\	-ri-	.	.	.	.
.	.	16a\JJ	16cc\JJ	.	.	.	.	.	.	.	.	.	.	.	.
=33	=33	=33	=33	=33	=33	=33	=33	=33	=33	=33	=33	=33	=33	=33	=33
4G\	.	16g/LL	16b/LL	4G\	-a	4d\	-a	4g\	-a	4b\	-a	.	1ryy	1ryy	4G\
*	*	*	*	*	*Xij	*	*	*	*	*	*	*	*	*	*
.	.	16g/	16g/	.	.	.	.	.	.	.	.	.	.	.	.
.	.	16a/	16a/	.	.	.	.	.	.	.	.	.	.	.	.
.	.	16b/JJ	16b/JJ	.	.	.	.	.	.	.	.	.	.	.	.
8r	.	16cc\LL	16cc\LL	8r	.	8r	.	4r	.	8r	.	.	.	.	8r
.	.	16dd\	16dd\	.	.	.	.	.	.	.	.	.	.	.	.
8A\	X 6	16ee\	16ee\	(8A\	et	(8c\	et	.	.	(8cc\	et-	.	.	.	8A\
.	.	16ff#\JJ	16ff#\JJ	.	.	.	.	.	.	.	.	.	.	.	.
!LO:LB:g=original	!	!	!	!	!	!	!	!	!	!	!	!	!	!	!
4B\	X 6	8gg\L	16gg\LL	4B\)	.	4B\)	.	4g\	et	4dd\)	.	.	.	.	4B\
.	.	.	16bb\	.	.	.	.	.	.	.	.	.	.	.	.
.	.	16ff#\L	16aa\	.	.	.	.	.	.	.	.	.	.	.	.
.	.	16ee\JJ	16gg\JJ	.	.	.	.	.	.	.	.	.	.	.	.
8r	.	16dd\LL	16ff#\LL	8r	.	8r	.	8r	.	8r	.	.	.	.	8r
.	.	16cc\	16ee\	.	.	.	.	.	.	.	.	.	.	.	.
8c\	X 6	16b\	16dd\	8c\	Spi-	8e\	Spi-	8g\	Spi-	8ee\	-Spi-	.	.	.	8c\
.	.	16a\JJ	16cc\JJ	.	.	.	.	.	.	.	.	.	.	.	.
=34	=34	=34	=34	=34	=34	=34	=34	=34	=34	=34	=34	=34	=34	=34	=34
*	*below	*	*	*	*	*	*	*	*	*	*	*	*	*	*
8d\L	6 4	8g/L	12bt/L	4d\	-ri-	4d\	-ri-	4g\	-ri-	4b\	-ri-	.	1ryy	1ryy	8d\L
.	.	.	12a/	.	.	.	.	.	.	.	.	.	.	.	.
8d\	.	8d/J	.	.	.	.	.	.	.	.	.	.	.	.	8d\
.	.	.	12g/J	.	.	.	.	.	.	.	.	.	.	.	.
8d\	.	2g/	12bt/L	8d\	-tu-	8d\	-tu-	8g\	-tu-	8b\	-tu-	.	.	.	8d\
.	.	.	12a/	.	.	.	.	.	.	.	.	.	.	.	.
8d\J	.	.	.	8d\	-i	8d\	-i	8g\	-i	8b\	-i	.	.	.	8d\J
.	.	.	12g/J	.	.	.	.	.	.	.	.	.	.	.	.
.	.	.	8qqg/	.	.	.	.	.	.	.	.	.	.	.	.
8D/L	5 3	.	2aT/	2D/	San-	2c\	San-	4g\	San-	2aT\	San-	.	.	.	8D/L
8D/	.	.	.	.	.	.	.	.	.	.	.	.	.	.	8D/
8D/	.	4f#t/	.	.	.	.	.	4f#t\	.	.	.	.	.	.	8D/
8D/J	.	.	.	.	.	.	.	.	.	.	.	.	.	.	8D/J
=35	=35	=35	=35	=35	=35	=35	=35	=35	=35	=35	=35	=35	=35	=35	=35
*	*above	*	*	*	*	*	*	*	*	*	*	*	*	*	*
4G\	.	4g/	4g/	4B\	-cto	4B\	-cto.	4g\	-cto:	4g/	-cto	.	1ryy	1ryy	4G\
*clefC1	*	*	*	*	*	*	*	*	*	*	*	*	*	*	*clefC1
8g\L|	.	4r	8g/L	4r	.	4r	.	4r	.	8g/	si-	.	.	.	8g\L|
8g\J|	.	.	8g/J	.	.	.	.	.	.	8g/	-cut	.	.	.	8g\J|
!	!	!	!	!LO:LB:g=original	!	!	!	!	!	!	!	!	!	!	!
8b\L|	.	2r	8b\L	2r	.	2r	.	2r	.	8b\	e-	.	.	.	8b\L|
8a\|	.	.	8a\	.	.	.	.	.	.	8a\	-rat	.	.	.	8a\|
8b\|	.	.	8b\	.	.	.	.	.	.	8b\	in	.	.	.	8b\|
8cc#X\J|	.	.	8cc#X\J	.	.	.	.	.	.	8cc#X\	prin-	.	.	.	8cc#X\J|
!	!	!	!	!	!	!LO:LB:g=original	!	!	!	!	!	!	!	!	!LO:LB:g=original
=36	=36	=36	=36	=36	=36	=36	=36	=36	=36	=36	=36	=36	=36	=36	=36
*^	*	*	*	*	*	*	*	*	*	*	*	*	*	*	*^
!	!	!	!	!	!LO:TX:a:t=2.	!	!LO:TX:a:t=1.	!	!	!	!	!	!	!	!	!	!
4dd\	8dd\L|>	.	4r	8dd\L	0r	.	1r	.	4r	.	8dd\	-ci-	.	1ryy	1ryy	4dd\	8dd\L|>
.	8a\|>	.	.	8a\J	.	.	.	.	.	.	8a\	-pi-	.	.	.	.	8a\|>
*	*	*	*	*2\right	*	*	*	*	*	*	*	*	*	*	*	*	*
2dd/	8d\	.	8d/L	2dd\	.	.	.	.	8d\	Si-	2dd\	-o	.	.	.	2dd/	8d\
.	8d\J	.	8d/J	.	.	.	.	.	8d\	-cut	.	.	.	.	.	.	8d\J
.	8e\L	.	8e/L	.	.	.	.	.	8e\	e-	.	.	.	.	.	.	8e\L
.	8d\	.	8d/	.	.	.	.	.	8d\	-rat	.	.	.	.	.	.	8d\
4ccn/	8e\	.	8e/	[4ccn\	.	.	.	.	8e\	in	4ccn\	et	.	.	.	4ccn/	8e\
.	8f#\J	.	8f#/J	.	.	.	.	.	8f#\	prin-	.	.	.	.	.	.	8f#\J
!	!	!	!	!LO:LB:g=original	!	!	!	!	!LO:LB:g=original	!	!LO:LB:g=original	!	!	!	!	!	!
=37	=37	=37	=37	=37	=37	=37	=37	=37	=37	=37	=37	=37	=37	=37	=37	=37	=37
4cc/	4g\	.	8g/L	4cc\]	.	.	4r	.	8g\	-ci-	4cc\	nunc	.	1ryy	1ryy	4cc/	4g\
.	.	.	8d/J	.	.	.	.	.	8d\	-pi-	.	.	.	.	.	.	.
*clefC4	*	*	*	*	*	*	*	*	*	*	*	*	*	*	*	*clefC4	*
8G/L	4ryy	X 3	2g/	8.b\L	.	.	8G/	Si-	2g\	-o	8.b\L	et	.	.	.	8G/L	4ryy
8G/J	.	.	.	.	.	.	8G/	-cut	.	.	.	.	.	.	.	8G/J	.
.	.	.	.	16cc\Jk	.	.	.	.	.	.	16cc\Jk	.	.	.	.	.	.
8B\L	2ryy	X 6	.	8dd\L	.	.	8B\	e-	.	.	(8dd\L	sem-	.	.	.	8B\L	2ryy
8A\	.	.	.	8cc\	.	.	8A\	-rat	.	.	8cc\J)	.	.	.	.	8A\	.
8B\	.	.	[4g/	8dd\	.	.	8B\	in	4g\	et	(8dd\L	.	.	.	.	8B\	.
8c#X\J	.	.	.	8ee\J	.	.	8c#X\	prin-	.	.	8ee\J)	.	.	.	.	8c#X\J	.
!LO:PB:g=original	!	!	!LO:LB:g=original	!	!	!	!	!	!	!	!	!	!	!	!	!	!
*v	*v	*	*	*	*	*	*	*	*	*	*	*	*	*	*	*v	*v
=38	=38	=38	=38	=38	=38	=38	=38	=38	=38	=38	=38	=38	=38	=38	=38
4d\	X 4	4g/]	4.a/	4r	.	8d\	-ci-	4g\	nunc	2a\	-per	.	1ryy	1ryy	4d\
.	.	.	.	.	.	8A/	-pi-	.	.	.	.	.	.	.	.
*clefF4	*	*	*	*	*	*	*	*	*	*	*	*	*	*	*clefF4
8D\L	X 3	4f#/	.	8D/	si-	2d\	-o	4f#\	et	.	.	.	.	.	8D/L
8D\J	.	.	8ff#\	8D/	-cut	.	.	.	.	.	.	.	.	.	8D/J
8E\L	X 7	2r	8gg\L	8E\	e-	.	.	(8g\L	sem-	2r	.	.	.	.	8E\L
8D\	.	.	8ff#\	8D/	-rat	.	.	8f#\J)	.	.	.	.	.	.	8D\
*	*Xreverse	*	*	*	*	*	*	*	*	*	*	*	*	*	*
8E\	X 6n	.	8gg\	8E\	in	4cn\	et	(8g\L	.	.	.	.	.	.	8E\
8F#\J	.	.	8aa\J	8F#\	prin-	.	.	8a\J)	.	.	.	.	.	.	8F#\J
=39	=39	=39	=39	=39	=39	=39	=39	=39	=39	=39	=39	=39	=39	=39	=39
8G\L	.	4r	4dd\	8G\	-ci-	4c\	nunc	4d\	-per	4r	.	.	1ryy	1ryy	8G\L
8D\J	.	.	.	8D/	-pi-	.	.	.	.	.	.	.	.	.	8D\J
*2\right	*	*	*	*	*	*	*	*	*	*	*	*	*	*	*
2G\	X 3	4bb\	4ddd\	2G\	-o	4B\	cet	4g\	et	4dd\	[[et	et	.	.	2G\
.	4 2	.	8qqddd/	.	.	.	.	.	.	.	.	.	.	.	.
.	.	2aa\	2ccc\	.	.	4e\	sem-	2a\	sem-	2cc\	sem-	in	.	.	.
4F#\	6 5	.	.	4F#\	et	4d\	.	.	.	.	.	.	.	.	4F#\
=40	=40	=40	=40	=40	=40	=40	=40	=40	=40	=40	=40	=40	=40	=40	=40
4G\	X 3	4gg\	8bb\L	4G\	nunc	4d\	-per	4g\	-per	8b\	-per	Sae-	1ryy	1ryy	4G\
.	X 4/	.	8ccc#X\J	.	.	.	.	.	.	8cc#X\	nunc	-cu-	.	.	.
4F#\	X 6	4aa\	2ddd\	4F#\	et	8d\	nunc	8a\	nunc	4dd\	et	-la	.	.	4F#\
.	.	.	.	.	.	8d\	et	8a\	et	.	.	.	.	.	.
2E\	X 7	2gg\	.	2E\	sem-	2e\	sem-	2g\	sem-	(4dd\	sem-	Sae-	.	.	2E\
.	X 6/	.	4ccc#X\	.	.	.	.	.	.	4dd#X\)	.	.	.	.	.
=41	=41	=41	=41	=41	=41	=41	=41	=41	=41	=41	=41	=41	=41	=41	=41
4D/	.	4ff#\	4ddd\	4D/	-per	4A/	-per	4f#\	-per	4dd\	-per	-cu-	1ryy	1ryy	4D/
*clefC4	*	*	*	*	*	*	*	*	*	*	*	*	*	*	*clefC4
8D/L	.	8f#/L	8dd\L	4r	.	8D/	et	8f#\	et	8dd\	et	-lo-	.	.	8D/L
8D/J	.	8f#/J	8dd\J	.	.	8D/	in	8f#\	in	8dd\	in]]	-rum	.	.	8D/J
8E/L	X 6n	8g/L	8ccn\L	2r	.	8E/L	sae-	8g\L	sae-	(8ccn\L	sae-	a-	.	.	8E/L
8D/	.	8f#/	8b\	.	.	8D/J	.	8f#\J	.	8b\J)	.	.	.	.	8D/
8E/	.	8g/	8cc\	.	.	8E/	.	8g\L	-cu-	8cc\	.	.	.	.	8E/
8F#/J	.	8a/J	8dd\J	.	.	8F#/	-cu	8a\J	.	8dd\	-cu-	.	.	.	8F#/J
=42	=42	=42	=42	=42	=42	=42	=42	=42	=42	=42	=42	=42	=42	=42	=42
4G/	.	4d/	8b\L	4r	.	4G/	-la	4d\	-la	4b\	-la	-men	1ryy	1ryy	4G/
.	.	.	8dd\J	.	.	.	.	.	.	.	.	.	.	.	.
*clefF4	*	*	*	*	*	*	*	*	*	*	*	*	*	*	*clefF4
8GG/L	.	8b\L	2gg\	8GG/	et	8d\	et	8g\	et	8b\	et	.	.	.	8GG/L
8GG/J	.	8b\J	.	8GG/	in	8d\	in	8g\	in	8b\	in	.	.	.	8GG/J
!	!	!	!	!	!	!	!	!LO:LB:g=original	!	!	!	!	!	!	!LO:PB:g=original
8BB/L	X 6	8dd\L	.	8BB/L	sae-	4.B\	sae-	4.g\	sae-	(8dd\L	sae-	.	.	.	8BB/L
8AA/	.	8cc\	.	8AA/J	.	.	.	.	.	8cc\J	.	.	.	.	8AA/
8BB/	.	8dd\	[4gg\	8BB/	.	.	.	.	.	8dd\)	.	.	.	.	8BB/
8C#X/J	.	8ee\J	.	8C#X/	-cu-	8A/	-cu-	8g\	-cu-	8ee\	-cu-	.	.	.	8C#X/J
=43	=43	=43	=43	=43	=43	=43	=43	=43	=43	=43	=43	=43	=43	=43	=43
8D/L	X 4	2a/	4gg\]	8D/L	-la	2d\	la	(4g\	la	2a\	-la	.	1ryy	1ryy	8D/L
8AA/J	.	.	.	8AA/J	.	.	.	.	.	.	.	.	.	.	8AA/J
2D/	X 3	.	4ff#\	2D/	.	.	.	4f#\)	.	.	.	.	.	.	2D/
!	!	!	!	!	!	!	!	!	!	!LO:LB:g=original	!	!	!	!	!
!	!	!	!	!	!	!LO:LB:g=original	!	!	!	!	!	!	!	!	!
.	4/ 2	4r	16r	.	.	4B\	-et	4g#X\	-et	4.ee\	et	.	.	.	.
.	.	.	16ee\LL	.	.	.	.	.	.	.	.	.	.	.	.
.	.	.	16gg#X\	.	.	.	.	.	.	.	.	.	.	.	.
.	.	.	16bb\JJ	.	.	.	.	.	.	.	.	.	.	.	.
!	!	!	!LO:TX:t=P:problem=mixed beam	!	!	!	!	!	!	!	!	!	!	!	!
[4Cn/	X 6	16r	8aa\L	[4Cn/	.	4c\	in	4a\	in	.	.	.	.	.	[4Cn/
.	.	16ee\LL	.	.	.	.	.	.	.	.	.	.	.	.	.
.	.	16cc\	8a/J	.	.	.	.	.	.	8ee\	in	.	.	.	.
.	.	16a\JJ	.	.	.	.	.	.	.	.	.	.	.	.	.
=44	=44	=44	=44	=44	=44	=44	=44	=44	=44	=44	=44	=44	=44	=44	=44
!	!	!LO:TX:t=P:problem=mixed beam	!	!	!	!	!	!	!	!	!	!	!	!	!
4C/]	4 2	8f#/L	16r	4C/]	.	4A\	sae-	4f#\	sae-	2dd\	sae-	.	1ryy	1ryy	4C/]
.	.	.	16dd\LL	.	.	.	.	.	.	.	.	.	.	.	.
.	.	8dd\J	16ff#\	.	.	.	.	.	.	.	.	.	.	.	.
.	.	.	16aa\JJ	.	.	.	.	.	.	.	.	.	.	.	.
4BB/	X 6	16r	4.ggn\	4BB/	.	4B\	.	2gn\	.	.	.	.	.	.	4BB/
.	.	16dd\LL	.	.	.	.	.	.	.	.	.	.	.	.	.
.	.	16b\	.	.	.	.	.	.	.	.	.	.	.	.	.
.	X 7	16g\JJ	.	.	.	.	.	.	.	.	.	.	.	.	.
!LO:LB:g=original	!	!	!	!LO:LB:g=original	!	!	!	!	!	!	!	!	!	!	!
2AA/	X 6	4.cc\	.	4.AA/	sae-	4c\	.	.	.	4.cc\	.	.	.	.	2AA/
.	.	.	16ff#\LL	.	.	.	.	.	.	.	.	.	.	.	.
.	.	.	16ee\JJ	.	.	.	.	.	.	.	.	.	.	.	.
.	.	.	4ff#\	.	.	8d\	.	8.f#\	.	.	.	.	.	.	.
.	.	16b/LL	.	8AA/	-cu-	8d\	-cu-	.	.	8cc\	-cu-	.	.	.	.
.	.	16a/JJ	.	.	.	.	.	16f#\	-cu-	.	.	.	.	.	.
=45	=45	=45	=45	=45	=45	=45	=45	=45	=45	=45	=45	=45	=45	=45	=45
8GG/L	.	4.b/	4.gg\	8GG/L	-la	8d\L	-la	4g\	-la	4b\	-la	.	1ryy	1ryy	8GG/L
8AA/	.	.	.	8AA/J	.	8c\J	.	.	.	.	.	.	.	.	8AA/
8BB/	X 6	.	.	8BB/	sae-	8d\	sae-	8g\	sae-	8b\	sae-	.	.	.	8BB/
8C/J	.	8b/	8gg\	8C/	-cu-	8e\	-cu-	8g\	-cu-	8b\	-cu-	.	.	.	8C/J
.	6 4	.	.	.	.	.	.	.	.	.	.	.	.	.	.
[2D/	.	8b/L	4gg\	[>2D/	-lo-	4d\	-lo-	4g\	-lo-	8b\	-lo-	.	.	.	[2D/
.	5 3	8a/J	.	.	.	.	.	.	.	8a\	-rum	.	.	.	.
.	.	4dd\	4ff#\	.	.	4d\	rum	4f#\	rum	4dd\	a-	.	.	.	.
!	!	!LO:LB:g=original	!LO:LB:g=original	!	!	!	!	!	!	!	!	!	!	!	!
=46	=46	=46	=46	=46	=46	=46	=46	=46	=46	=46	=46	=46	=46	=46	=46
!LO:TX:a:i:t=T&colon; S&colon;	!	!	!	!	!	!	!	!	!	!	!	!	!	!	!LO:TX:a:i:t=T&colon; S&colon;
1D_<	.	[2ee\	8bb\L	1D_	-rum	8G/L	a-	8b\L	a-	[2ee\	.	.	1ryy	1ryy	1D_<
.	.	.	8aa\	.	.	8F#/	.	8a\	.	.	.	.	.	.	.
.	.	.	8bb\	.	.	8G/	.	8b\	.	.	.	.	.	.	.
.	.	.	8ccc\J	.	.	8A/J	.	8cc\J	.	.	.	.	.	.	.
.	.	8ee\L]	[2aa\	.	.	4F#/	.	[2a\	.	8ee\L]	.	.	.	.	.
.	.	8dd\	.	.	.	.	.	.	.	8dd\	.	.	.	.	.
.	.	8ee\	.	.	.	[4f#\	.	.	.	8ee\	.	.	.	.	.
.	.	8ff#\J	.	.	.	.	.	.	.	8ff#\J	.	.	.	.	.
=47	=47	=47	=47	=47	=47	=47	=47	=47	=47	=47	=47	=47	=47	=47	=47
1D_<	.	[2dd\	8aa\L]	1D_	a-	8f#\L]	.	8a\L]	.	[2dd\	.	.	1ryy	1ryy	1D_<
.	.	.	8gg\	.	.	8e\	.	8g\	.	.	.	.	.	.	.
.	.	.	8aa\	.	.	8f#\	.	8a\	.	.	.	.	.	.	.
.	.	.	8bb\J	.	.	8g\J	.	8b\J	.	.	.	.	.	.	.
.	.	8dd\L]	[2gg\	.	.	[2e\	.	[2g\	.	8dd\L]	.	.	.	.	.
.	.	8cc\	.	.	.	.	.	.	.	8cc\	.	.	.	.	.
.	.	8dd\	.	.	.	.	.	.	.	8dd\	.	.	.	.	.
.	.	8ee\J	.	.	.	.	.	.	.	8ee\J	.	.	.	.	.
=48	=48	=48	=48	=48	=48	=48	=48	=48	=48	=48	=48	=48	=48	=48	=48
1D_<	.	[2cc\	8gg\L]	1D_<	.	8e\L]	.	8g\L]	.	[2cc\	.	.	1ryy	1ryy	1D_<
.	.	.	8ff#\	.	.	8d\	.	8f#\	.	.	.	.	.	.	.
.	.	.	8gg\	.	.	8e\	.	8g\	.	.	.	.	.	.	.
.	.	.	8aa\J	.	.	8f#\J	.	8a\J	.	.	.	.	.	.	.
.	.	.	8qqbb/	.	.	.	.	.	.	.	.	.	.	.	.
.	.	8cc\L]	2aa\	.	.	2f#\	.	2a\	.	8cc\L]	.	.	.	.	.
.	.	8b\	.	.	.	.	.	.	.	8b\	.	.	.	.	.
.	.	8cc\	.	.	.	.	.	.	.	8cc\	.	.	.	.	.
.	.	8dd\J	.	.	.	.	.	.	.	8dd\J	.	.	.	.	.
!	!	!	!	!	!	!	!	!LO:LB:g=original	!	!	!	!	!	!	!
=49	=49	=49	=49	=49	=49	=49	=49	=49	=49	=49	=49	=49	=49	=49	=49
2D/]	.	8b\L	8gg\L	2D/]	.	4g\	.	8g\L	.	8b\L	.	.	1ryy	1ryy	2D/]
.	.	8dd\	8bb\	.	.	.	.	8b\	.	8dd\	.	.	.	.	.
.	.	8cc\	8aa\	.	.	4G/	.	8a\	.	8cc\	.	.	.	.	.
.	.	8b\J	8gg\J	.	.	.	.	8g\J	.	8b\J	.	.	.	.	.
4D/	.	(8b/L	(8gg\L	4D/	men	4d\	men	8g\L	men	(8b\L	-men	.	.	.	4D/
.	.	8a/J)	8ff#\J)	.	.	.	.	8f#\J	.	8a\J)	.	.	.	.	.
8D/L	.	8f#/L	[4a/	[4D/	a-	8r	.	[4f#\	a-	[4a\	a-	.	.	.	8D/L
[>8D/J	.	[8f#/J	.	.	.	8A/	a-	.	.	.	.	.	.	.	[>8D/J
=50	=50	=50	=50	=50	=50	=50	=50	=50	=50	=50	=50	=50	=50	=50	=50
8D\L]	.	8f#/L]	4a/]	8D/L]	.	(4A/	.	8f#\L]	.	4a\]	.	.	1ryy	1ryy	8D\L]
8C\	.	8e/	.	8C/	.	.	.	8e\	.	.	.	.	.	.	8C\
8D\	X 6	8f#/	2b/	8D/	.	8F#\L)	.	8f#\	.	2b\	.	.	.	.	8D\
[8E\J	.	[8g/J	.	[>8E/J	.	8B\J|	.	[8g\J	.	.	.	.	.	.	[8E\J
8E\L]	X 5	8g/L]	.	8E\L]	.	(4B\	.	8g\L]	.	.	.	.	.	.	8E\L]
8D\	.	8f#/	.	8D\	.	.	.	8f#\	.	.	.	.	.	.	8D\
8E\	X 6	8g/	[4cc\	8E\	.	8G\L)	.	8g\	.	[4cc\	.	.	.	.	8E\
[8F#\J	.	[8a/J	.	[8F#\J	.	8c\J|	.	[8a\J	.	.	.	.	.	.	[8F#\J
!	!	!	!	!	!	!LO:LB:g=original	!	!	!	!LO:LB:g=original	!	!	!	!	!
=51	=51	=51	=51	=51	=51	=51	=51	=51	=51	=51	=51	=51	=51	=51	=51
8F#\L]	X 5	8a/L]	4cc\]	8F#\L]	.	(4c\	.	8a\L]	.	4cc\]	.	.	1ryy	1ryy	8F#\L]
8E\	.	8g/	.	8E\	.	.	.	8g\	.	.	.	.	.	.	8E\
8F#\	X 6	8a/	2dd\	8F#\	.	8A\L)	.	8a\	.	2dd\	.	.	.	.	8F#\
[8G\J	.	[8b/J	.	[8G\J	.	8d\J|	.	[8b\J	.	.	.	.	.	.	[8G\J
8G\L]	X 5	8b\L]	.	8G\L]	.	(4d\	.	8b\L]	.	.	.	.	.	.	8G\L]
8F#\	.	8a\	.	8F#\	.	.	.	8a\	.	.	.	.	.	.	8F#\
8G\	X 6	8a\	[4ee\	8G\	.	8B\L)	.	8b\	.	[4ee\	.	.	.	.	8G\
[8A\J	.	[8cc\J	.	[8A\J	.	8e\J|	.	[8cc\J	.	.	.	.	.	.	8A\J
!	!	!	!	!	!	!	!	!	!	!	!	!	!	!	!LO:LB:g=original
=52	=52	=52	=52	=52	=52	=52	=52	=52	=52	=52	=52	=52	=52	=52	=52
8A\L]	X 5	8cc\L]	4ee\]	8A\L]	.	(4e\	.	8cc\L]	.	4ee\]	.	.	1ryy	1ryy	8A\L
8G\	.	8b\	.	8G\	.	.	.	8a\	.	.	.	.	.	.	8G\
8A\	X 6	8cc\	4ff#\	8A\	.	8c\L	.	8cc\	.	4ff#\	.	.	.	.	8A\
8c\J	.	8a\J	.	8c\J	.	8f#\J)	.	8a\J	.	.	.	.	.	.	8c\J
!LO:LB:g=original	!	!	!	!LO:LB:g=original	!	!	!	!	!	!	!	!	!	!	!
4B\	X 6	4b/	8gg\L	4B\	-men	4d\	men	4b\	men	8gg\L	.	.	.	.	4B\
.	.	.	16ff#\L	.	.	.	.	.	.	16ff#\L	.	.	.	.	.
.	.	.	16ee\JJ	.	.	.	.	.	.	16ee\JJ	.	.	.	.	.
8r	.	8r	8dd\L	8r	.	8r	.	8r	.	8dd\L	.	.	.	.	8r
8c\	X 6	8a/	8cc\J	8c\	a-	8e\	a-	8a\	a-	8cc\J	.	.	.	.	8c\
=53	=53	=53	=53	=53	=53	=53	=53	=53	=53	=53	=53	=53	=53	=53	=53
!LO:TX:t=P:problem=mixed beam	!	!	!	!	!	!	!	!	!	!	!	!	!	!	!LO:TX:t=P:problem=mixed beam
8d\L	6 4	4g/	4b/	8d\L	.	4.d\	.	4g\	.	4b\	.	.	1ryy	1ryy	8d\L
8c\	.	.	.	8c\J	.	.	.	.	.	.	.	.	.	.	8c\
!	!	!	!	!LO:TX:t=P:problem=mixed beam	!	!	!	!	!	!	!	!	!	!	!
8d\	5 3	4f#t/	4aT/	8d\L	.	.	.	4f#t\	.	4aT\	.	.	.	.	8d\
8D/J	.	.	.	8D/J	.	8c\	.	.	.	.	.	.	.	.	8D/J
4G\	.	4g/	4g/	4G\	-men	4B\	-men	4g\	men,	4g/	-men	.	.	.	4G\
!	!	!LO:TX:t=P:problem=mixed beam	!LO:TX:t=P:problem=mixed beam	!	!	!	!	!	!	!	!	!	!	!	!
8r	.	8G/L	8G/L	8r	.	8r	.	8r	.	8r	.	.	.	.	8r
*	*	*	*	*	*ij	*	*	*	*	*	*	*	*	*	*
8c\	.	16cc\L	16ee\L	8c\	a-	8g\	a-	8e\	a-	8cc\	a-	.	.	.	8c\
.	.	16cc\JJ	16ee\JJ	.	.	.	.	.	.	.	.	.	.	.	.
!	!	!LO:PB:g=original	!	!	!	!	!	!	!	!	!	!	!	!	!
=54	=54	=54	=54	=54	=54	=54	=54	=54	=54	=54	=54	=54	=54	=54	=54
4d\	6 4	16b/LL	16dd\LL	4d\	.	2d\	.	8d\L	.	(8b\L	.	.	1ryy	1ryy	4d\
.	.	16b/	16dd\	.	.	.	.	.	.	.	.	.	.	.	.
.	.	16a/	16cc\	.	.	.	.	8c\J	.	8a\J)	.	.	.	.	.
.	.	16a/JJ	16cc\JJ	.	.	.	.	.	.	.	.	.	.	.	.
4D/	5 3	16g/LL	16b/LL	4D/	.	.	.	8B/L	.	(8g/L	.	.	.	.	4D/
.	.	16g/	16b/	.	.	.	.	.	.	.	.	.	.	.	.
.	.	16f#/	16a/	.	.	.	.	8A/J	.	8f#/J)	.	.	.	.	.
.	.	16f#/JJ	16a/JJ	.	.	.	.	.	.	.	.	.	.	.	.
!	!	!	!LO:PB:g=original	!	!	!	!	!	!	!	!	!	!	!	!
4G\	.	8g/L	8ggL 8b 8d 8G/	4G\	-men	4d\	-men	4B/	-men	4g/	-men	.	.	.	4G\
*	*	*	*	*	*Xij	*	*	*	*	*	*	*	*	*	*
.	.	8d/J	8d/J	.	.	.	.	.	.	.	.	.	.	.	.
!	!	!	!LO:TX:t=P:problem=mixed beam	!	!	!	!	!	!	!	!	!	!	!	!
8r	.	8r	8G/L	8r	.	8r	.	8r	.	8r	.	.	.	.	8r
8C/	.	16cc\LL	16ee\L	8C/	a-	8G/	a-	8cc\	a-	8ee\	a-	.	.	.	8C/
.	.	16cc\JJ	16ee\JJ	.	.	.	.	.	.	.	.	.	.	.	.
=55	=55	=55	=55	=55	=55	=55	=55	=55	=55	=55	=55	=55	=55	=55	=55
4D/	6 4	16b/LL	16dd\LL	4D\	.	2d\	.	8b\L	.	(8dd\L	.	.	1ryy	1ryy	4D/
.	.	16b/	16dd\	.	.	.	.	.	.	.	.	.	.	.	.
.	.	16a/	16cc\	.	.	.	.	8a\J	.	8cc\J)	.	.	.	.	.
.	.	16a/JJ	16cc\JJ	.	.	.	.	.	.	.	.	.	.	.	.
4DD/	7 3	16g/LL	16b/LL	4DD/	.	.	.	8g\L	.	(8b\L	.	.	.	.	4CC/
.	.	16g/	16b/	.	.	.	.	.	.	.	.	.	.	.	.
.	.	16f#/	16a/	.	.	.	.	8f#\J	.	8a\J)	.	.	.	.	.
.	.	16f#/JJ	16a/JJ	.	.	.	.	.	.	.	.	.	.	.	.
4GG/|	.	8bL 8d 8G/	(16d/LL	4GG/	-men	4d\	-men	4g\	-men	4b\	-men	.	.	.	4GG/|
.	.	.	16b/	.	.	.	.	.	.	.	.	.	.	.	.
.	.	8dd/J	16gg/)	.	.	.	.	.	.	.	.	.	.	.	.
.	.	.	16bb/JJ|	.	.	.	.	.	.	.	.	.	.	.	.
*	*	*	*	*	*ij	*	*ij	*	*ij	*	*ij	*	*	*	*
!	!	!	!LO:TX:t=P:problem=mixed beam	!	!	!	!	!	!	!	!	!	!	!	!
4G\|	.	8bL 8d 8G/	8gg/L 8b/ 8d/	4G\	a-	4d\	a-	4g\	a-	4b\	a-	.	.	.	4G\|
.	.	8dd/J	8bb\J	.	.	.	.	.	.	.	.	.	.	.	.
=56	=56	=56	=56	=56	=56	=56	=56	=56	=56	=56	=56	=56	=56	=56	=56
!LO:TX:t=P:problem=mixed beam	!	!	!	!	!	!	!	!	!	!	!	!	!	!	!LO:TX:t=P:problem=mixed beam
!	!	!	!LO:TX:t=P:problem=mixed beam	!	!	!	!	!	!	!	!	!	!	!	!
8GG/L	.	8bL 8d 8G/	8gg/L 8b/ 8d/	4GG/	-men	4d\	-men	4g\	-men	4b\	-men	.	1ryy	1ryy	8GG/L
*	*	*	*	*	*Xij	*	*Xij	*	*Xij	*	*Xij	*	*	*	*
8G\	.	8dd/J	8bb\J	.	.	.	.	.	.	.	.	.	.	.	8G\
!	!	!	!LO:TX:t=P:problem=mixed beam	!	!	!	!	!	!	!	!	!	!	!	!
8GG/	.	8bL 8d 8G/	8gg/L 8b/ 8d/	4G\	a-	4d\	a-	4g\	a-	4b\	a-	.	.	.	8GG/
8G\J	.	8dd/J	8bb\J	.	.	.	.	.	.	.	.	.	.	.	8G\J
4GG/	.	4b 4d 4G/	4gg 4b 4d 4G/	4GG/	-men.	4d\	-men.	4g\	-men.	4b\	men.	.	.	.	4GG/
4r	.	4r	4r	4r	.	4r	.	4r	.	4r	.	.	.	.	4r
==	==	==	==	==	==	==	==	==	==	==	==	==	==	==	==
*-	*-	*-	*-	*-	*-	*-	*-	*-	*-	*-	*-	*-	*-	*-	*-
!!!system-decoration: [(s1)][(g1)][(g2)][(g3)][(s10)]
!!!RDF**kern: | = vertical stroke
!!!RDF**kern: > = above
!!!RDF**kern: < = below
!!!ENC: Marta Opryszak
!!!END: 2022-04-05
!!!EED: Antoni Szymański
!!!EST: 2022-04-10
